X: 38954
T: Svensk Annas
R: waltz
M: 3/4
K: Cmajor
EF|G2 e2 d2|c2 B2 A2|G2 E2 A2|G4 G2|G2 e2 d2|c2 B2 c2|d6-|d2 z2 EF|
G2 e2 d2|c2 B2 A2|G2 E2 A2|G4 G2|A2 f2 e2|d2 A3 B|c6-|c2 z2 G2|
G2 G2 E2|G4 G2|AA A2 F2|A4 A2|G2 e2 d2|c2 B2 c2|d6-|d2 z2 EF|
G2 e2 d2|c2 B2 A2|GG E2 A2|G4 GG|A2 f2 e2|d2 A3 B|c6-c2 z2 z2||
G4 e2|G6|A4 f2|A6|B2 B2 B2|A4 A2|G2 ec GE|c'g ec GE|
G4 e2|G6|A4 f2|A6|B2 B2 f2|e4 d2|1 c6-|c2:|2 c4 EG|C,4||

